X: 48
T:The Shamrock Shore
M:C
L:1/4
B:"O'Neill's 48"
N:"Moderate" "collected by F. O'Neill"
Z:"Transcribed by Norbert Paap, norbertp@bdu.uva.nl"
K:D
D |\
G F/2-G/2 (E/2F/2G/2A/2) | (B e/2c/2) d3/4-B/4A/2F/2 | (E/2F/2G/2E/2) D D | D3 (A/2B/4c/4) |
d c/2-d/2 B c/2-d/2 | e/2d/2c/2B/2 A F/2A/2 | B> F A/2F/2D/2F/2 | E3 (A/2B/4c/4) |
d c/2-d/2 B c/2-d/2 | (e/2d/2c/2B/2) A F/2A/2 | B> F A/2F/2D/2F/2 | E3 (D/2E/4F/4) |
G F/2G/2 E/2F/2G/2A/2 | B e/2f/2 d3/4B/4A/2F/2 | E/2F/2G/2E/2 D D | D3 ||


